X: 1
T: Farewell To Ballinahulla
M: 12/8
L: 1/8
R: slide
K: Gmaj
D2G G2B def g2e|d2G GAB c2A F2A|
D2G G2B def g2A|1 Bcd c2A G3 G3:|
|:g2f g2d efg d3|efg d2B c2A F2A|
1 g2f g2d efg d2A|Bcd c2A G3 G3:|
2 B2d ^c2e def g2A|Bcd c2A G3 G3||
